images/logo/technomart-logo-footer.svg

<svg width="220" height="56" viewBox="0 0 220 56" fill="none" xmlns="http://www.w3.org/2000/svg">
<rect width="220" height="56" fill="#EE3643"/>
<rect y="50.4" width="220" height="5.6" fill="#B52933"/>
<path fill-rule="evenodd" clip-rule="evenodd" d="M159.699 17.5376V34.1039H157.589V17.5376H153.838V15.6969H163.451V17.5376H159.699ZM151.576 27.2802C151.208 27.7973 150.747 28.1654 150.192 28.3846C149.638 28.6037 148.977 28.7133 148.211 28.7133C147.852 28.7133 147.446 28.687 146.992 28.6344C146.539 28.5818 146.164 28.5204 145.867 28.4503V34.1039H143.757V15.9599C144.351 15.767 144.949 15.6312 145.55 15.5523C146.152 15.4734 146.805 15.434 147.508 15.434C148.446 15.434 149.243 15.5435 149.899 15.7627C150.556 15.9818 151.087 16.3455 151.494 16.8539C151.9 17.3623 152.197 18.0372 152.385 18.8787C152.572 19.7202 152.666 20.7632 152.666 22.0079C152.666 23.2876 152.576 24.357 152.396 25.2159C152.217 26.0749 151.943 26.763 151.576 27.2802ZM150.38 19.6413C150.263 19.0102 150.079 18.5106 149.829 18.1424C149.579 17.7743 149.263 17.5157 148.88 17.3667C148.497 17.2177 148.039 17.1432 147.508 17.1432H145.867V26.8726H147.508C148.039 26.8726 148.497 26.7981 148.88 26.6491C149.263 26.5 149.579 26.2415 149.829 25.8733C150.079 25.5052 150.263 25.0056 150.38 24.3745C150.497 23.7434 150.556 22.9545 150.556 22.0079C150.556 21.0612 150.497 20.2724 150.38 19.6413ZM138.482 29.3707H133.793L132.738 34.1039H130.628L134.613 15.6969H137.661L141.647 34.1039H139.537L138.482 29.3707ZM136.184 18.3265H136.09L134.145 27.53H138.13L136.184 18.3265ZM126.056 20.4301H125.939L122.539 31.7373H120.429L117.03 20.4301H116.913L116.209 34.1039H114.099L115.037 15.6969H117.616L121.437 28.3188H121.531L125.353 15.6969H127.932L128.869 34.1039H126.759L126.056 20.4301ZM110.301 32.3947C109.864 33.1134 109.336 33.6218 108.719 33.9198C108.101 34.2178 107.394 34.3668 106.597 34.3668C105.8 34.3668 105.093 34.2178 104.475 33.9198C103.858 33.6218 103.33 33.1134 102.893 32.3947C102.455 31.6759 102.123 30.7074 101.896 29.489C101.67 28.2706 101.556 26.7411 101.556 24.9004C101.556 23.0597 101.67 21.5302 101.896 20.3118C102.123 19.0934 102.455 18.1249 102.893 17.4061C103.33 16.6874 103.858 16.179 104.475 15.881C105.093 15.583 105.8 15.434 106.597 15.434C107.394 15.434 108.101 15.583 108.719 15.881C109.336 16.179 109.864 16.6874 110.301 17.4061C110.739 18.1249 111.071 19.0934 111.298 20.3118C111.524 21.5302 111.638 23.0597 111.638 24.9004C111.638 26.7411 111.524 28.2706 111.298 29.489C111.071 30.7074 110.739 31.6759 110.301 32.3947ZM109.281 21.0086C109.117 19.9919 108.902 19.1855 108.637 18.5894C108.371 17.9934 108.058 17.5814 107.699 17.3535C107.339 17.1256 106.972 17.0117 106.597 17.0117C106.222 17.0117 105.855 17.1256 105.495 17.3535C105.136 17.5814 104.823 17.9934 104.557 18.5894C104.292 19.1855 104.077 19.9919 103.913 21.0086C103.748 22.0254 103.666 23.3227 103.666 24.9004C103.666 26.4781 103.748 27.7754 103.913 28.7922C104.077 29.8089 104.292 30.6153 104.557 31.2114C104.823 31.8074 105.136 32.2194 105.495 32.4472C105.855 32.6751 106.222 32.7891 106.597 32.7891C106.972 32.7891 107.339 32.6751 107.699 32.4472C108.058 32.2194 108.371 31.8074 108.637 31.2114C108.902 30.6153 109.117 29.8089 109.281 28.7922C109.445 27.7754 109.528 26.4781 109.528 24.9004C109.528 23.3227 109.445 22.0254 109.281 21.0086ZM96.6329 25.6893H91.7095V34.1039H89.5995V15.6969H91.7095V23.8486H96.6329V15.6969H98.7429V34.1039H96.6329V25.6893ZM85.4974 34.1039L82.5668 26.2152L79.6362 34.1039H77.5262L81.0429 24.6374L77.8779 15.6969H79.9879L82.5668 23.0597L85.1458 15.6969H87.2558L84.0907 24.6374L87.6075 34.1039H85.4974ZM68.2655 15.6969H76.2367V17.5376H70.3756V23.5856H75.5334V25.4263H70.3756V32.2632H76.2367V34.1039H68.2655V15.6969ZM62.6388 34.1039H60.5287V17.5376H56.7776V15.6969H66.3899V17.5376H62.6388V34.1039Z" fill="white"/>
</svg>

<svg width="220" height="56" viewBox="0 0 220 56" fill="none" xmlns="http://www.w3.org/2000/svg"><path fill="#EE3643" d="M0 0h220v56H0z"/><path fill="#B52933" d="M0 50.4h220V56H0z"/><path fill-rule="evenodd" clip-rule="evenodd" d="M159.7 17.54V34.1h-2.11V17.54h-3.75V15.7h9.61v1.84h-3.75Zm-8.12 9.74c-.37.52-.83.89-1.39 1.1-.55.22-1.21.33-1.98.33a10.7 10.7 0 0 1-2.34-.26v5.65h-2.11V15.96c.6-.2 1.19-.33 1.79-.4.6-.09 1.25-.13 1.96-.13.94 0 1.73.11 2.39.33.66.22 1.19.59 1.6 1.1.4.5.7 1.18.88 2.02.2.84.29 1.88.29 3.13a16 16 0 0 1-.27 3.2 5.48 5.48 0 0 1-.82 2.07Zm-1.2-7.64a3.95 3.95 0 0 0-.55-1.5 2.02 2.02 0 0 0-.95-.77 3.79 3.79 0 0 0-1.37-.23h-1.64v9.73h1.64c.53 0 .99-.07 1.37-.22.38-.15.7-.4.95-.78.25-.36.43-.86.55-1.5.12-.63.18-1.42.18-2.36 0-.95-.06-1.74-.18-2.37Zm-11.9 9.73h-4.69l-1.05 4.73h-2.11l3.98-18.4h3.05l3.99 18.4h-2.11l-1.06-4.73Zm-2.3-11.04h-.09l-1.94 9.2h3.98l-1.95-9.2Zm-10.12 2.1h-.12l-3.4 11.3h-2.11l-3.4-11.3h-.12l-.7 13.67h-2.11l.94-18.4h2.58l3.82 12.62h.1l3.81-12.62h2.58l.94 18.4h-2.11l-.7-13.67ZM110.3 32.39a3.83 3.83 0 0 1-1.58 1.53c-.62.3-1.33.45-2.12.45-.8 0-1.5-.15-2.13-.45-.61-.3-1.14-.8-1.58-1.53a8.68 8.68 0 0 1-1-2.9 25.8 25.8 0 0 1-.33-4.59c0-1.84.11-3.37.34-4.59a8.68 8.68 0 0 1 1-2.9c.43-.72.96-1.23 1.57-1.53.62-.3 1.33-.45 2.13-.45.8 0 1.5.15 2.12.45.62.3 1.14.8 1.58 1.53.44.71.77 1.68 1 2.9.22 1.22.34 2.75.34 4.59 0 1.84-.12 3.37-.34 4.59a8.68 8.68 0 0 1-1 2.9Zm-1.02-11.38a10.06 10.06 0 0 0-.64-2.42c-.27-.6-.58-1-.94-1.24a2.04 2.04 0 0 0-1.1-.34c-.38 0-.74.12-1.1.34-.36.23-.68.64-.94 1.24-.27.6-.48 1.4-.65 2.42a25.08 25.08 0 0 0-.24 3.89c0 1.58.08 2.88.24 3.9.17 1 .38 1.82.65 2.41.26.6.58 1 .94 1.24.36.23.72.34 1.1.34.37 0 .74-.11 1.1-.34.36-.23.67-.64.94-1.24.26-.6.48-1.4.64-2.42.16-1.01.25-2.31.25-3.89s-.09-2.87-.25-3.9Zm-12.65 4.68h-4.92v8.41H89.6V15.7h2.11v8.15h4.92V15.7h2.11v18.4h-2.1V25.7ZM85.5 34.1l-2.93-7.88-2.93 7.88h-2.11l3.51-9.46-3.16-8.94h2.1l2.59 7.36 2.58-7.36h2.1l-3.16 8.94 3.52 9.46H85.5ZM68.27 15.7h7.97v1.84h-5.86v6.05h5.15v1.84h-5.15v6.83h5.86v1.84h-7.97V15.7Zm-5.63 18.4h-2.11V17.54h-3.75V15.7h9.61v1.84h-3.75V34.1Z" fill="#fff"/></svg>
